X: 8
T: The Merry Blacksmith
R: reel
M: 4/4
L: 1/8
K: Dmaj
| d3A BAFA | ABdA BAFA | ABde feed | Be~e2 (3Bcd ef |
d3A BAFA | DFAd BAFA | DFAd (3fga ec | dABG FDDA |
dcdA BAFA | ~A2FA BAFA | ABde fded | Beed egfe |
dcdA BAFA | ABdA BAFA | ABde fdec | dBAG FDDg |
faag fafe | dcdA BAFA | ABde (3fgf ed | Beed e2fg |
~a3g ~f3e | dcdA BAFA | ABde faec | dBAG FDDg |
faag faec | dfed BAFA | DAde fded | Be~e2 (3Bcd eg |
fgaf g2fe | dfed BAFA | ABde (3fga ec | dBAG FDD2 |


Tune 72	Setting 25590

